Phone repair/img/chat.svg

<svg width="30" height="30" viewBox="0 0 30 30" fill="none" xmlns="http://www.w3.org/2000/svg">
<g clip-path="url(#clip0_901_150)">
<path d="M26.9969 25.7322C31.42 20.6303 30.8772 12.9367 25.8869 8.47144C28.4501 17.4535 21.6722 26.4257 12.334 26.4257C12.1542 26.4257 13.2391 26.4321 8.96577 26.4057C11.303 28.732 14.416 29.9999 17.6658 29.9999C17.6742 29.9999 29.1177 29.9414 29.1244 29.9414C29.9056 29.9376 30.2948 28.9869 29.7375 28.4368L26.9969 25.7322Z" fill="#FF005C"/>
<path d="M12.3338 24.668C19.1344 24.668 24.6671 19.135 24.6671 12.334C24.6671 5.53301 19.1345 0 12.3338 0C5.53311 0 0.000516328 5.53301 0.000516328 12.334C0.000516328 15.3281 1.06036 18.1598 3.00268 20.4002L0.26202 23.1049C-0.293448 23.6531 0.0913366 24.6056 0.875204 24.6094C0.881239 24.6094 12.3278 24.668 12.3338 24.668ZM7.08995 7.96875H17.6362C18.1216 7.96875 18.5151 8.36227 18.5151 8.84766C18.5151 9.33305 18.1216 9.72656 17.6362 9.72656H7.08995C6.60456 9.72656 6.2111 9.33305 6.2111 8.84766C6.2111 8.36227 6.60462 7.96875 7.08995 7.96875ZM7.08995 11.4844H17.6362C18.1216 11.4844 18.5151 11.8779 18.5151 12.3633C18.5151 12.8487 18.1216 13.2422 17.6362 13.2422H7.08995C6.60456 13.2422 6.2111 12.8487 6.2111 12.3633C6.2111 11.8779 6.60462 11.4844 7.08995 11.4844ZM6.2111 15.8789C6.2111 15.3935 6.60456 15 7.08995 15H17.6362C18.1216 15 18.5151 15.3935 18.5151 15.8789C18.5151 16.3643 18.1216 16.7578 17.6362 16.7578H7.08995C6.60462 16.7578 6.2111 16.3643 6.2111 15.8789Z" fill="#FF005C"/>
</g>
<defs>
<clipPath id="clip0_901_150">
<rect width="30" height="30" fill="white"/>
</clipPath>
</defs>
</svg>

<svg width="30" height="30" fill="none" xmlns="http://www.w3.org/2000/svg"><g clip-path="url(#a)" fill="#FF005C"><path d="M26.997 25.732c4.423-5.102 3.88-12.795-1.11-17.26 2.563 8.981-4.215 17.954-13.553 17.954-.18 0 .905.006-3.368-.02a12.29 12.29 0 0 0 8.7 3.594l11.458-.059c.782-.003 1.17-.954.614-1.504l-2.741-2.705Z"/><path d="M12.334 24.668c6.8 0 12.333-5.533 12.333-12.334C24.667 5.533 19.134 0 12.334 0S0 5.533 0 12.334c0 2.994 1.06 5.826 3.002 8.066L.262 23.105c-.555.548-.17 1.5.613 1.504l11.459.059ZM7.09 7.968h10.546a.879.879 0 0 1 0 1.759H7.09a.879.879 0 0 1 0-1.758Zm0 3.516h10.546a.879.879 0 0 1 0 1.758H7.09a.879.879 0 0 1 0-1.758Zm-.879 4.395c0-.486.394-.879.879-.879h10.546a.879.879 0 0 1 0 1.758H7.09a.879.879 0 0 1-.879-.88Z"/></g><defs><clipPath id="a"><path fill="#fff" d="M0 0h30v30H0z"/></clipPath></defs></svg>
